build/images/icons/damn_3.svg

<svg width="66" height="66" viewBox="0 0 66 66" fill="none" xmlns="http://www.w3.org/2000/svg">
<path fill-rule="evenodd" clip-rule="evenodd" d="M56 45H37V47C37 48.104 36.104 49 35 49H31C29.896 49 29 48.104 29 47V45H10L2 53H64L56 45Z" fill="#D1D1D1"/>
<path fill-rule="evenodd" clip-rule="evenodd" d="M64.0002 54H2.00019C1.59619 54 1.23019 53.757 1.07619 53.383C0.921189 53.009 1.00719 52.579 1.29319 52.293L9.29319 44.293C9.48019 44.105 9.73419 44 10.0002 44H29.0002C29.5532 44 30.0002 44.447 30.0002 45C30.0002 45.553 29.5532 46 29.0002 46H10.4142L4.41419 52H61.5862L55.5862 46H37.0002C36.4472 46 36.0002 45.553 36.0002 45C36.0002 44.447 36.4472 44 37.0002 44H56.0002C56.2662 44 56.5202 44.105 56.7072 44.293L64.7072 52.293C64.9932 52.579 65.0792 53.009 64.9242 53.383C64.7702 53.757 64.4042 54 64.0002 54Z" fill="#383F4E"/>
<path fill-rule="evenodd" clip-rule="evenodd" d="M3 54C2.448 54 2 54.448 2 55V63C2 63.552 2.448 64 3 64H63C63.552 64 64 63.552 64 63V55C64 54.448 63.552 54 63 54H3ZM63 66H3C1.346 66 0 64.654 0 63V55C0 53.346 1.346 52 3 52H63C64.654 52 66 53.346 66 55V63C66 64.654 64.654 66 63 66Z" fill="#383F4E"/>
<path fill-rule="evenodd" clip-rule="evenodd" d="M44 66C43.447 66 43 65.553 43 65V53C43 52.447 43.447 52 44 52C44.553 52 45 52.447 45 53V65C45 65.553 44.553 66 44 66Z" fill="#383F4E"/>
<path fill-rule="evenodd" clip-rule="evenodd" d="M58 59C58 57.343 56.657 56 55 56C53.343 56 52 57.343 52 59C52 60.657 53.343 62 55 62C56.657 62 58 60.657 58 59Z" fill="#213B6E"/>
<path fill-rule="evenodd" clip-rule="evenodd" d="M38 60H7C6.447 60 6 59.553 6 59C6 58.447 6.447 58 7 58H38C38.553 58 39 58.447 39 59C39 59.553 38.553 60 38 60Z" fill="#383F4E"/>
<path fill-rule="evenodd" clip-rule="evenodd" d="M30 40V47C30 47.552 30.448 48 31 48H35C35.552 48 36 47.552 36 47V40H30ZM35 50H31C29.346 50 28 48.654 28 47V39C28 38.447 28.447 38 29 38H37C37.553 38 38 38.447 38 39V47C38 48.654 36.654 50 35 50Z" fill="#383F4E"/>
<path fill-rule="evenodd" clip-rule="evenodd" d="M61.5809 40H4.42087C3.34287 40 2.37487 39.444 1.83087 38.515C1.28687 37.584 1.27687 36.469 1.80687 35.529L8.55687 23.529C9.08687 22.586 10.0889 22 11.1709 22H25.0009C25.5539 22 26.0009 22.447 26.0009 23C26.0009 23.553 25.5539 24 25.0009 24H11.1709C10.8099 24 10.4769 24.195 10.2989 24.51L3.54887 36.51C3.29487 36.961 3.47087 37.356 3.55787 37.505C3.64387 37.653 3.90287 38 4.42087 38H61.5809C62.0989 38 62.3569 37.653 62.4439 37.505C62.5309 37.356 62.7069 36.961 62.4529 36.51L55.7029 24.51C55.5249 24.195 55.1909 24 54.8309 24H41.0009C40.4479 24 40.0009 23.553 40.0009 23C40.0009 22.447 40.4479 22 41.0009 22H54.8309C55.9129 22 56.9149 22.586 57.4449 23.529L64.1949 35.529C64.7249 36.469 64.7149 37.584 64.1709 38.515C63.6269 39.444 62.6589 40 61.5809 40Z" fill="#383F4E"/>
<path fill-rule="evenodd" clip-rule="evenodd" d="M30 18V29C30 29.552 30.448 30 31 30H35C35.552 30 36 29.552 36 29V18H30ZM35 32H31C29.346 32 28 30.654 28 29V17C28 16.447 28.447 16 29 16H37C37.553 16 38 16.447 38 17V29C38 30.654 36.654 32 35 32Z" fill="#383F4E"/>
<path fill-rule="evenodd" clip-rule="evenodd" d="M11.1709 2C10.8109 2 10.4769 2.195 10.2989 2.51L3.54887 14.51C3.29487 14.961 3.47087 15.356 3.55787 15.505C3.64487 15.653 3.90287 16 4.42087 16H61.5809C62.0989 16 62.3579 15.653 62.4439 15.505C62.5309 15.356 62.7069 14.961 62.4529 14.51L55.7029 2.51C55.5249 2.195 55.1919 2 54.8309 2H11.1709ZM61.5809 18H4.42087C3.34287 18 2.37487 17.444 1.83087 16.515C1.28687 15.584 1.27687 14.469 1.80687 13.529L8.55687 1.529C9.08687 0.586 10.0889 0 11.1709 0H54.8309C55.9129 0 56.9149 0.586 57.4449 1.529L64.1949 13.529C64.7249 14.469 64.7149 15.584 64.1709 16.515C63.6269 17.444 62.6589 18 61.5809 18Z" fill="#383F4E"/>
</svg>

<svg width="66" height="66" fill="none" xmlns="http://www.w3.org/2000/svg"><path fill-rule="evenodd" clip-rule="evenodd" d="M56 45H37v2a2 2 0 01-2 2h-4a2 2 0 01-2-2v-2H10l-8 8h62l-8-8z" fill="#D1D1D1"/><path fill-rule="evenodd" clip-rule="evenodd" d="M64 54H2a.999.999 0 01-.707-1.707l8-8A.996.996 0 0110 44h19a1 1 0 110 2H10.414l-6 6h57.172l-6-6H37a1 1 0 110-2h19c.266 0 .52.105.707.293l8 8A1 1 0 0164 54z" fill="#383F4E"/><path fill-rule="evenodd" clip-rule="evenodd" d="M3 54a1 1 0 00-1 1v8a1 1 0 001 1h60a1 1 0 001-1v-8a1 1 0 00-1-1H3zm60 12H3c-1.654 0-3-1.346-3-3v-8c0-1.654 1.346-3 3-3h60c1.654 0 3 1.346 3 3v8c0 1.654-1.346 3-3 3z" fill="#383F4E"/><path fill-rule="evenodd" clip-rule="evenodd" d="M44 66a1 1 0 01-1-1V53a1 1 0 112 0v12a1 1 0 01-1 1z" fill="#383F4E"/><path fill-rule="evenodd" clip-rule="evenodd" d="M58 59a3 3 0 10-6 0 3 3 0 006 0z" fill="#213B6E"/><path fill-rule="evenodd" clip-rule="evenodd" d="M38 60H7a1 1 0 110-2h31a1 1 0 110 2zm-8-20v7a1 1 0 001 1h4a1 1 0 001-1v-7h-6zm5 10h-4c-1.654 0-3-1.346-3-3v-8a1 1 0 011-1h8a1 1 0 011 1v8c0 1.654-1.346 3-3 3z" fill="#383F4E"/><path fill-rule="evenodd" clip-rule="evenodd" d="M61.58 40H4.42a2.974 2.974 0 01-2.59-1.485 2.969 2.969 0 01-.023-2.986l6.75-12A3.003 3.003 0 0111.17 22H25a1 1 0 110 2H11.17c-.361 0-.694.195-.872.51l-6.75 12a.982.982 0 00.009.995.982.982 0 00.863.495h57.16a.984.984 0 00.863-.495.982.982 0 00.009-.995l-6.75-12a1.003 1.003 0 00-.872-.51H41a1 1 0 110-2h13.83c1.082 0 2.084.586 2.614 1.529l6.75 12c.53.94.52 2.055-.024 2.986A2.974 2.974 0 0161.58 40z" fill="#383F4E"/><path fill-rule="evenodd" clip-rule="evenodd" d="M30 18v11a1 1 0 001 1h4a1 1 0 001-1V18h-6zm5 14h-4c-1.654 0-3-1.346-3-3V17a1 1 0 011-1h8a1 1 0 011 1v12c0 1.654-1.346 3-3 3z" fill="#383F4E"/><path fill-rule="evenodd" clip-rule="evenodd" d="M11.17 2c-.36 0-.693.195-.871.51l-6.75 12a.982.982 0 00.009.995.984.984 0 00.863.495h57.16a.982.982 0 00.863-.495.982.982 0 00.009-.995l-6.75-12A1.002 1.002 0 0054.83 2H11.17zm50.41 16H4.42a2.974 2.974 0 01-2.59-1.485 2.969 2.969 0 01-.023-2.986l6.75-12A3.003 3.003 0 0111.17 0h43.66c1.082 0 2.084.586 2.614 1.529l6.75 12c.53.94.52 2.055-.024 2.986A2.974 2.974 0 0161.58 18z" fill="#383F4E"/></svg>
